X:1
T: La Bastringue
C:
R:Reel
Q: 232
K:D
M:4/4
L:1/8
|:f2 ff f2 gf|e2 c2 d4|c2 d2 ef ec|d2 e2 f2 d2|
f2 ff f2 gf|e2 c2 d4|g2 f2 ef ed|B2 c2 d4:|
|:D2 FA dA FD|=C2 EG cG EC|D2 FA dA FD|=fe d=c d^c A^F|
|:D2 FA dA FD|=C2 EG cG EC|D2 FA dA de|=fe d=c d2 d2:|
